svg/fluentui-system-icons/ic_fluent_box_arrow_up_24_regular.svg

<svg width="24" height="24" viewBox="0 0 24 24" fill="none" xmlns="http://www.w3.org/2000/svg">
<path d="M10.5911 2.51301C11.4947 2.14671 12.5053 2.14671 13.4089 2.51301L20.9075 5.55298C21.5679 5.82071 22 6.46216 22 7.17477V12.8105C21.5557 12.3842 21.051 12.0204 20.5 11.7332V7.77316L12.7503 10.7654V13.0635C12.0581 13.8041 11.5371 14.7067 11.2503 15.7083V10.7641L3.5 7.75003V16.8275C3.5 16.9293 3.56173 17.0209 3.65607 17.0592L11.1547 20.0991C11.1863 20.112 11.2183 20.1241 11.2503 20.1354V20.1342L11.439 20.2109C11.4976 20.2348 11.5575 20.2548 11.618 20.2709C11.8663 20.7973 12.1832 21.2849 12.5572 21.7224C11.898 21.8214 11.2187 21.7437 10.5911 21.4892L3.09252 18.4493C2.43211 18.1815 2 17.5401 2 16.8275V7.17477C2 6.46216 2.43211 5.82071 3.09252 5.55298L10.5911 2.51301ZM12.8453 3.90312C12.3032 3.68334 11.6968 3.68334 11.1547 3.90312L9.24127 4.67882L16.7684 7.60604L19.4373 6.57554L12.8453 3.90312ZM4.58998 6.56448L12.0013 9.44667L14.6917 8.40787L7.21503 5.50027L4.58998 6.56448ZM23 17.501C23 14.4634 20.5376 12.001 17.5 12.001C14.4624 12.001 12 14.4634 12 17.501C12 20.5385 14.4624 23.001 17.5 23.001C20.5376 23.001 23 20.5385 23 17.501ZM17.5424 14.0028L17.6281 14.0176L17.691 14.0388L17.7585 14.0729L17.806 14.105L20.3536 16.6474L20.4114 16.7167C20.5464 16.9115 20.5271 17.181 20.3536 17.3545C20.18 17.5281 19.9106 17.5474 19.7157 17.4124L19.6464 17.3545L17.999 15.707L18 21.001L17.9919 21.0909C17.9549 21.2949 17.794 21.4559 17.5899 21.4929L17.5 21.501L17.4101 21.4929C17.206 21.4559 17.0451 21.2949 17.0081 21.0909L17 21.001L16.999 15.709L15.3536 17.3545L15.2843 17.4124C15.1138 17.5305 14.8862 17.5305 14.7157 17.4124L14.6464 17.3545L14.5886 17.2853C14.4705 17.1148 14.4705 16.8872 14.5886 16.7167L14.6464 16.6474L17.1589 14.1354L17.2153 14.0898L17.2886 14.0477L17.3719 14.0176L17.432 14.006L17.488 14.001L17.5424 14.0028Z" fill="#212121"/>
</svg>

<svg xmlns="http://www.w3.org/2000/svg" width="24" height="24"><path d="M10.591 2.513a3.75 3.75 0 0 1 2.818 0l7.498 3.04A1.75 1.75 0 0 1 22 7.175v5.635a6.52 6.52 0 0 0-1.5-1.077v-3.96l-7.75 2.992v2.298a6.492 6.492 0 0 0-1.5 2.645v-4.944L3.5 7.75v9.078a.25.25 0 0 0 .156.231l7.499 3.04c.031.013.063.025.095.036l.189.076c.059.024.118.044.179.06.248.526.565 1.014.94 1.451a3.75 3.75 0 0 1-1.967-.233l-7.498-3.04A1.75 1.75 0 0 1 2 16.827V7.176a1.75 1.75 0 0 1 1.093-1.622l7.498-3.04Zm2.254 1.39a2.25 2.25 0 0 0-1.69 0L9.24 4.68l7.527 2.927 2.67-1.03-6.593-2.673ZM4.59 6.564l7.411 2.883 2.69-1.04L7.216 5.5 4.59 6.564ZM23 17.501a5.5 5.5 0 1 0-11 0 5.5 5.5 0 0 0 11 0Zm-5.458-3.498.086.015.063.02.068.035.047.032 2.548 2.542.057.07a.5.5 0 0 1-.695.695l-.07-.057L18 15.707v5.294l-.008.09a.5.5 0 0 1-.402.402l-.09.008-.09-.008a.5.5 0 0 1-.402-.402L17 21l-.001-5.292-1.645 1.646-.07.057a.5.5 0 0 1-.568 0l-.07-.057-.057-.07a.5.5 0 0 1 0-.568l.057-.07 2.513-2.512.056-.045.074-.042.083-.03.06-.012.056-.005.054.002Z"/></svg>
